layouts/icon-pack/spell_chain_lightning.svg

<?xml version="1.0" encoding="UTF-8"?>
<svg width="1200pt" height="1200pt" version="1.1" viewBox="0 0 1200 1200" xmlns="http://www.w3.org/2000/svg">
 <g fill="#fff">
  <path d="m867.91 350.58c0 7.0273-5.6992 12.727-12.727 12.727s-12.727-5.6992-12.727-12.727 5.6992-12.727 12.727-12.727 12.727 5.6992 12.727 12.727"/>
  <path d="m1103 349.22c-1.8867-28.777-16.797-55.121-40.5-71.551-23.699-16.434-53.602-21.152-81.211-12.824-6.1641 1.8008-12.793 1.1016-18.445-1.9453-20.508-10.852-51.891-34.641-47.625-77.508 4.6875-46.5 23.953-67.781 33.773-75.727 2.8516-2.2656 3.5039-6.332 1.5-9.375-4.5664-7.5977-7.6758-15.984-9.1641-24.727-0.71484-3.6992-3.9453-6.3789-7.7109-6.3984h-41.906c-2.2539-0.003906-4.3516 1.1445-5.5625 3.0469-1.2109 1.8984-1.3672 4.2852-0.41406 6.3281 3.1641 7.4766 4.8984 23.297-1.7812 35.461-8.7891 18.23-12.82 38.387-11.719 58.594 0.21094 3.4922-1.168 6.8906-3.7539 9.2461-2.5898 2.3555-6.1016 3.4102-9.5586 2.8711-17.648-2.8594-44.859-14.977-43.758-62.391 0 0 1.4531-28.617-12.07-46.289-3.3008-4.2812-8.4023-6.7812-13.805-6.7734h-152.88c-2.7305 0.007813-5.1367 1.7969-5.9258 4.4102-0.79297 2.6133 0.21484 5.4336 2.4805 6.957 27.117 17.883 74.578 58.594 96.398 134.37 0.79297 2.7461 2.3867 5.1914 4.5781 7.0234 2.1953 1.8359 4.8828 2.9727 7.7266 3.2656 31.617 3.2109 131.74 16.688 180.68 61.102 3.0898 2.7812 5.1445 6.5234 5.8359 10.621 0.6875 4.1016-0.03125 8.3125-2.0391 11.949-12.469 22.129-15.523 48.34-8.4688 72.742 7.0508 24.402 23.617 44.945 45.969 57.008-51.281 6.2812-78.844-23.93-92.227-47.273-1.4883-2.5195-4.5156-3.6875-7.3086-2.8164-2.793 0.87109-4.6211 3.5547-4.4102 6.4727 0.75 12.734 4.0664 25.188 9.75 36.609 1.3945 2.5 1.9453 5.3867 1.5703 8.2266-2.3438 13.523-14.789 19.359-25.008 15.188-19.773-8.0703-38.859-17.734-57.07-28.898-23.953-14.836-26.578-41.109-25.922-55.875 0.29297-6.1797-4.1641-11.57-10.289-12.445l-44.227-6.3984c-4.3125-0.63281-8.7188 0-12.68 1.8281-29.309 13.293-59.867 23.648-91.219 30.914-9.3594 2.3555-19.047 3.1445-28.664 2.3438-22.594-2.3438-36.891-23.273-32.648-45.586 2.5156-12.105 2.7695-24.574 0.75-36.773-0.66797-3.5195-3.6562-6.1289-7.2344-6.3203-3.5781-0.1875-6.8242 2.0938-7.8594 5.5234-5.6016 17.789-18.07 37.5-39.562 47.016-5.2656 2.6289-11.156 3.7383-17.016 3.2109 23.27-26.668 30.75-63.629 19.684-97.246-11.066-33.617-39.035-58.906-73.594-66.539-34.559-7.6367-70.582 3.5195-94.777 29.348-4.4062 4.6953-10.789 7.0039-17.18 6.2109-19.867-2.2891-39.078-8.4961-56.531-18.258-5.1289-3.0195-11.609-2.4453-16.125 1.4297-13.641 11.906-40.711 42.867-55.992 110.16-0.61719 2.7617-1.9688 5.3047-3.9062 7.3672-1.9375 2.0586-4.3906 3.5625-7.1094 4.3516l-31.336 9c-4.1602 1.2227-7.0195 5.0391-7.0312 9.375v42.703c-0.015625 1.5938 1.0352 3 2.5664 3.4375s3.168-0.19922 3.9961-1.5625l16.852-26.977c1.6641-2.6602 4.3203-4.543 7.3828-5.2266l41.039-9.1172c3.8672-0.86719 6.6367-4.2656 6.7031-8.2266 0.21094-10.758 2.2031-32.625 14.062-52.125 14.906-24.633 46.664-27.188 66.258-11.344 5.7969 4.9258 9.4375 11.926 10.148 19.5 1.3008 11.301 4.5273 22.297 9.5391 32.508-14.227 23.695-60.539 91.078-152.06 140.62-2.4922 1.3125-4.5586 3.3047-5.9648 5.7422s-2.0938 5.2266-1.9805 8.0391c1.0547 21.539 11.719 72.656 46.875 117.73 0 0 33.141 46.523 94.828 57.539 3.7227 0.60547 7.4062-1.2852 9.082-4.6641 1.6797-3.375 0.96094-7.4531-1.7695-10.055-19.266-18.352-46.031-50.719-51.844-93.023-1.2188-8.5391 1.7109-17.145 7.8828-23.168 6.1758-6.0195 14.855-8.7344 23.359-7.3008 5.0156 0.9375 9.8906 2.5156 14.508 4.6875 8.6094 4.0508 17.664 7.082 26.977 9.0234 18.469 3.6094 48.188 7.5469 73.758 2.3438 6.9883-1.4336 14.227 0.76172 19.242 5.8359 17.766 18 59.836 61.43 94.289 102.87 2.5508 3.082 6.9648 3.8555 10.41 1.8164 3.4414-2.0352 4.8945-6.2773 3.418-9.9961-16.102-40.453-40.43-97.031-66.609-141.61-1.707-2.9141-4.2852-5.2188-7.3711-6.5938-3.0859-1.375-6.5234-1.75-9.832-1.0703-29.648 6.0469-110.74 18.562-142.64-17.625 0 0-21.961-24.984 4.5234-49.992 19.078-17.977 55.828-32.438 75-39.117 14.23 3.7891 29.125 4.3945 43.617 1.7812 14.164-2.3281 28.594 2.2031 38.883 12.211 22.473 21.746 40.887 47.324 54.375 75.539 1.4219 3.0078 3.6211 5.5859 6.3672 7.4609 2.75 1.8789 5.9453 2.9922 9.2656 3.2266l49.875 3.6562c3.8711 0.32031 7.7461-0.59766 11.062-2.625 38.344-24 80.719-24.258 107.25-21.094 16.613 2.0781 32.566 7.8008 46.711 16.758 52.895 33.152 91.547 84.812 108.42 144.91 0.88281 3.1836 3.6602 5.4766 6.957 5.7344 3.293 0.25781 6.3984-1.5742 7.7617-4.5859 45.773-99.797 147.89-164.46 184.71-185.16 4.7031-2.0586 9.2344-4.4961 13.547-7.2891 14.18-9.1484 25.656-21.926 33.234-37.008 7.5781-15.078 10.984-31.91 9.8672-48.75zm-712.99-33.984c-9.4258 0.007813-18.469-3.7344-25.137-10.395-6.668-6.6641-10.414-15.703-10.418-25.129-0.003906-9.4258 3.7422-18.469 10.406-25.133s15.707-10.41 25.133-10.406c9.4258 0.003906 18.465 3.75 25.129 10.418 6.6602 6.668 10.402 15.711 10.395 25.137-0.007812 9.4141-3.75 18.438-10.41 25.094-6.6562 6.6523-15.684 10.391-25.098 10.391zm604.5 62.109c-9.4219 0-18.461-3.7422-25.125-10.406-6.6641-6.6641-10.406-15.703-10.406-25.125s3.7422-18.461 10.406-25.125c6.6641-6.6641 15.703-10.406 25.125-10.406 9.4219 0 18.461 3.7422 25.125 10.406 6.6641 6.6641 10.406 15.703 10.406 25.125 0.007812 9.4258-3.7344 18.465-10.398 25.133-6.668 6.6641-15.707 10.406-25.133 10.398z"/>
  <path d="m359.39 125.25c5.6953-4.2656 11.859-8.6953 18.305-13.008 14.441-9.6602 31.789-14.008 49.082-12.297 17.293 1.707 33.453 9.3711 45.723 21.672 2.4844 2.5312 5.0156 5.2266 7.5469 8.0859 2.6875 3.0508 3.9961 7.0781 3.6172 11.125-0.37891 4.0508-2.4062 7.7617-5.6133 10.266-3.2031 2.5039-7.2969 3.5742-11.316 2.9609-32.746-5.0938-65.914-6.957-99.023-5.5547-5.668 0.26172-10.844-3.207-12.754-8.5508-1.9141-5.3398-0.11328-11.305 4.4336-14.699z"/>
  <path d="m550.71 195.87c0 10.797-8.75 19.547-19.547 19.547-10.797 0-19.547-8.75-19.547-19.547 0-10.797 8.75-19.547 19.547-19.547 10.797 0 19.547 8.75 19.547 19.547"/>
  <path d="m372.56 674.13c0 9.9805-8.0898 18.07-18.07 18.07-9.9805 0-18.07-8.0898-18.07-18.07 0-9.9805 8.0898-18.07 18.07-18.07 9.9805 0 18.07 8.0898 18.07 18.07"/>
  <path d="m326.95 974.48-53.906-1.8516c-7.9922-0.28125-15.668 3.1328-20.812 9.2578-22.168 25.965-48.047 48.512-76.805 66.914-3.875 2.4766-8.9648 1.8281-12.094-1.5352-3.1328-3.3672-3.4062-8.4922-0.65625-12.176 23.062-30.984 54.398-77.836 71.555-124.05 2.0508-5.5234 7.3281-9.1797 13.219-9.1641h22.898c4.2227-0.003906 8.2227 1.8867 10.898 5.1562 8.4141 10.312 28.664 33.867 51.562 51.117 3.168 2.3984 4.4102 6.5781 3.0703 10.32-1.3438 3.7422-4.957 6.1758-8.9297 6.0156z"/>
  <path d="m147.38 1101.6c0 16.117-13.062 29.18-29.18 29.18-16.117 0-29.18-13.062-29.18-29.18 0-16.117 13.062-29.18 29.18-29.18 16.117 0 29.18 13.062 29.18 29.18"/>
  <path d="m1040.2 939.84c-2.6992-41.277-22.77-79.477-55.227-105.12-32.457-25.645-74.266-36.332-115.05-29.41-5.1328 0.88281-10.359-0.94531-13.824-4.8359-3.4648-3.8906-4.6797-9.2891-3.2148-14.289 1.0898-3.4883 2.7617-6.7695 4.9453-9.7031 18.375-25.359 104.2-27.07 169.71 4.6875 1.6523 0.83594 3.6641 0.34766 4.7539-1.1484 1.0898-1.4961 0.92969-3.5586-0.37109-4.875-12.211-12.68-28.125-29.625-42.188-45.469-2.2227-2.5273-5.4219-3.9805-8.7891-3.9844-33.156 4.25-66.828 1.8125-99.023-7.1719-2.5352 0-5.0039 0.82422-7.0312 2.3438-11.719 9.0234-60.234 45.258-124.22-0.39844-3.9648-2.8398-9.1641-3.2812-13.547-1.1484-15.797 7.6641-55.875 24.562-100.78 23.438 0 0-69.352-1.8047-99.984-0.44531-5.0234 0.23828-10.055-0.3125-14.906-1.6406-33.105-9.1172-65.473-20.734-96.82-34.758-2.4414-1.1406-5.3516-0.32031-6.8398 1.9297-1.4844 2.25-1.0977 5.2461 0.91016 7.0469 21.938 19.898 52.008 46.43 76.805 65.391 5.0625 3.875 11.391 5.7148 17.742 5.1562 7.5-0.60938 18.984-1.4766 33.117-2.3438 10.43-0.67188 20.625 3.2891 27.867 10.828 15.062 15.195 27.512 32.777 36.844 52.031 1.2852 2.8789 3.6758 5.1172 6.6328 6.2109 10.828 3.8438 49.219 27.094 79.688 49.477 3.2305 2.5273 7.832 2.2852 10.781-0.56641 2.9492-2.8477 3.3516-7.4375 0.9375-10.754-15.027-21.09-34.668-38.477-57.422-50.836-5.0234-3.125-9.3008-7.3086-12.539-12.258-3.5703-4.8945-6.543-10.199-8.8594-15.797-2.7305-6.8711-1.8125-14.656 2.4375-20.707 4.25-6.0508 11.266-9.5547 18.656-9.3164 29.531 0.9375 59.109 3.4219 84 8.5078 0 0 36.516 9.0703 56.25 37.102 2.1211 3.0312 3.1172 6.7109 2.8164 10.402-0.30469 3.6875-1.8906 7.1562-4.4805 9.8008-26.734 27.273-41.691 63.949-41.648 102.14-0.003906 4.7852-2.9609 9.0742-7.4297 10.781-36.586 14.062-105.47 18.07-216.07-54.797-4.0547-2.6914-8.9102-3.9141-13.758-3.4688-24.047 2.3438-98.438 16.078-156.3 99.023 0 0-52.242 77.344-109.1 96.797 0 0-21.094 7.4297-45.07 14.789-3.7227 1.1367-6.082 4.7969-5.5781 8.6562 0.50781 3.8594 3.7266 6.7891 7.6172 6.9297l68.133 2.3438c4.418 0.16797 8.7578-1.1992 12.281-3.8672 25.43-19.195 133.99-99.258 185.55-107.06 41.297-6.2578 117-1.0547 158.11 2.5547 4.3789 0.39844 8.4531 2.4219 11.414 5.6719 2.9648 3.2539 4.6016 7.4961 4.5938 11.895-0.007813 4.3984-1.6641 8.6328-4.6406 11.871-10.395 11.672-23.922 20.109-38.977 24.305-4.0664 1.0977-8.2578 1.6406-12.469 1.6172-14.555 0-52.805-1.8281-86.391-18.75-4.0508-1.9688-8.918-1.0195-11.93 2.3281-3.0117 3.3516-3.4414 8.2891-1.0547 12.109 10.688 16.898 26.109 36 46.875 49.219 2.8711 1.9297 6.1875 3.1016 9.6328 3.3984l64.195 4.5469c4.9375 0.35938 9.8438-1.0156 13.875-3.8906 20.016-14.297 88.5-57.938 177.87-56.742 7.4453 0.20312 14.711 2.3281 21.094 6.1641 30.711 17.836 66.863 23.891 101.71 17.031 34.848-6.8594 66.004-26.168 87.66-54.316 21.656-28.145 32.332-63.211 30.031-98.652zm-141.21 60.492c-12.602 0.007812-24.691-4.9961-33.605-13.902-8.9141-8.9102-13.922-20.996-13.926-33.598-0.003906-12.602 5.0039-24.691 13.914-33.602 8.9102-8.9102 21-13.918 33.602-13.914 12.602 0.003907 24.688 5.0117 33.598 13.926 8.9062 8.9141 13.91 21.004 13.902 33.605-0.03125 12.574-5.0469 24.621-13.949 33.5-8.9023 8.8789-20.961 13.867-33.535 13.867z"/>
  <path d="m1111 850.57c0 12.93-10.484 23.414-23.414 23.414-12.93 0-23.414-10.484-23.414-23.414 0-12.93 10.484-23.414 23.414-23.414 12.93 0 23.414 10.484 23.414 23.414"/>
 </g>
</svg>

<?xml version="1.0" encoding="UTF-8" standalone="no"?>
<!DOCTYPE svg PUBLIC "-//W3C//DTD SVG 1.1//EN" "http://www.w3.org/Graphics/SVG/1.1/DTD/svg11.dtd">
<svg width="100%" height="100%" viewBox="0 0 493 512" version="1.1" xmlns="http://www.w3.org/2000/svg" xmlns:xlink="http://www.w3.org/1999/xlink" xml:space="preserve" xmlns:serif="http://www.serif.com/" style="fill-rule:evenodd;clip-rule:evenodd;stroke-linejoin:round;stroke-miterlimit:2;">
    <g transform="matrix(1,0,0,1,-89.02,-69.1643)">
        <g transform="matrix(0.482284,0,0,0.482284,46.0871,35.8075)">
            <path d="M867.91,350.58C867.91,357.607 862.211,363.307 855.183,363.307C848.155,363.307 842.456,357.608 842.456,350.58C842.456,343.552 848.155,337.853 855.183,337.853C862.211,337.853 867.91,343.552 867.91,350.58" style="fill:white;fill-rule:nonzero;"/>
            <path d="M1103,349.22C1101.11,320.443 1086.2,294.099 1062.5,277.669C1038.8,261.235 1008.9,256.517 981.289,264.845C975.125,266.646 968.496,265.947 962.844,262.9C942.336,252.048 910.953,228.259 915.219,185.392C919.906,138.892 939.172,117.611 948.992,109.665C951.844,107.399 952.496,103.333 950.492,100.29C945.926,92.692 942.816,84.306 941.328,75.563C940.613,71.864 937.383,69.184 933.617,69.164L891.711,69.164C889.457,69.16 887.359,70.309 886.149,72.211C884.938,74.11 884.781,76.496 885.734,78.539C888.899,86.016 890.633,101.836 883.953,114C875.164,132.23 871.133,152.387 872.234,172.594C872.445,176.087 871.066,179.485 868.48,181.84C865.891,184.196 862.379,185.251 858.922,184.712C841.274,181.852 814.063,169.735 815.164,122.321C815.164,122.321 816.617,93.704 803.094,76.032C799.793,71.75 794.691,69.25 789.289,69.258L636.409,69.258C633.678,69.266 631.272,71.055 630.483,73.668C629.69,76.282 630.698,79.102 632.963,80.625C660.08,98.508 707.541,139.219 729.361,214.995C730.154,217.741 731.748,220.187 733.94,222.019C736.135,223.855 738.822,224.991 741.666,225.284C773.283,228.495 873.406,241.972 922.346,286.386C925.436,289.168 927.491,292.91 928.182,297.007C928.87,301.109 928.151,305.32 926.143,308.956C913.674,331.085 910.62,357.296 917.674,381.698C924.725,406.1 941.291,426.643 963.643,438.706C912.362,444.988 884.799,414.776 871.416,391.433C869.928,388.914 866.901,387.746 864.108,388.617C861.315,389.488 859.486,392.172 859.697,395.09C860.447,407.824 863.764,420.278 869.447,431.699C870.842,434.199 871.393,437.085 871.018,439.925C868.674,453.448 856.229,459.284 846.01,455.113C826.237,447.043 807.151,437.379 788.94,426.215C764.987,411.379 762.362,385.106 763.018,370.34C763.311,364.161 758.854,358.77 752.729,357.895L708.502,351.497C704.189,350.864 699.783,351.497 695.822,353.325C666.513,366.618 635.955,376.973 604.603,384.239C595.243,386.594 585.556,387.383 575.939,386.583C553.345,384.239 539.048,363.31 543.291,340.997C545.806,328.892 546.06,316.423 544.041,304.224C543.373,300.704 540.384,298.095 536.806,297.903C533.228,297.716 529.982,299.997 528.947,303.427C523.345,321.216 510.877,340.927 489.385,350.443C484.119,353.072 478.229,354.181 472.369,353.654C495.639,326.986 503.119,290.025 492.053,256.408C480.987,222.791 453.018,197.502 418.459,189.869C383.9,182.232 347.877,193.388 323.682,219.217C319.276,223.912 312.893,226.221 306.502,225.428C286.635,223.139 267.424,216.932 249.971,207.17C244.842,204.15 238.362,204.724 233.846,208.599C220.205,220.505 193.135,251.466 177.854,318.759C177.237,321.521 175.885,324.064 173.948,326.127C172.01,328.185 169.557,329.689 166.838,330.478L135.502,339.478C131.342,340.701 128.483,344.517 128.471,348.853L128.471,391.556C128.455,393.15 129.506,394.556 131.037,394.994C132.569,395.431 134.205,394.794 135.034,393.431L151.886,366.454C153.55,363.794 156.206,361.911 159.268,361.228L200.307,352.11C204.175,351.243 206.944,347.845 207.01,343.884C207.221,333.126 209.214,311.259 221.072,291.759C235.978,267.126 267.736,264.571 287.33,280.415C293.127,285.341 296.768,292.341 297.478,299.915C298.779,311.216 302.006,322.212 307.018,332.423C292.791,356.118 246.479,423.501 154.958,473.043C152.465,474.355 150.399,476.347 148.993,478.785C147.587,481.222 146.899,484.012 147.012,486.824C148.067,508.363 158.731,559.48 193.887,604.554C193.887,604.554 227.028,651.077 288.715,662.093C292.438,662.698 296.121,660.808 297.797,657.429C299.477,654.054 298.758,649.976 296.028,647.374C276.762,629.022 249.997,596.655 244.184,554.351C242.965,545.812 245.895,537.206 252.067,531.183C258.242,525.163 266.922,522.449 275.426,523.882C280.441,524.82 285.316,526.398 289.934,528.57C298.543,532.62 307.598,535.652 316.911,537.593C335.38,541.202 365.099,545.14 390.669,539.937C397.657,538.503 404.896,540.699 409.911,545.773C427.677,563.773 469.747,607.203 504.2,648.643C506.75,651.725 511.164,652.498 514.61,650.459C518.051,648.424 519.504,644.182 518.028,640.463C501.926,600.01 477.598,543.432 451.419,498.853C449.712,495.939 447.133,493.634 444.047,492.259C440.962,490.884 437.524,490.509 434.215,491.189C404.567,497.236 323.475,509.751 291.575,473.564C291.575,473.564 269.614,448.58 296.099,423.572C315.177,405.595 351.927,391.134 371.099,384.455C385.329,388.244 400.224,388.849 414.716,386.236C428.88,383.908 443.31,388.439 453.599,398.447C476.072,420.193 494.486,445.771 507.974,473.986C509.396,476.994 511.595,479.572 514.341,481.447C517.091,483.326 520.286,484.439 523.607,484.674L573.482,488.33C577.353,488.65 581.228,487.732 584.544,485.705C622.888,461.705 665.263,461.447 691.794,464.611C708.407,466.689 724.36,472.412 738.505,481.369C791.4,514.521 830.052,566.181 846.925,626.279C847.807,629.462 850.585,631.755 853.882,632.013C857.175,632.271 860.28,630.439 861.643,627.427C907.416,527.63 1009.53,462.967 1046.35,442.267C1051.06,440.209 1055.59,437.771 1059.9,434.978C1074.08,425.83 1085.56,413.052 1093.13,397.97C1100.71,382.892 1104.12,366.06 1103,349.22L1103,349.22ZM390.01,315.236C380.584,315.244 371.541,311.502 364.873,304.841C358.205,298.177 354.459,289.138 354.455,279.712C354.451,270.286 358.197,261.243 364.861,254.579C371.525,247.915 380.568,244.169 389.994,244.173C399.42,244.177 408.459,247.923 415.123,254.591C421.783,261.259 425.525,270.302 425.518,279.728C425.51,289.142 421.768,298.166 415.108,304.822C408.452,311.474 399.424,315.213 390.01,315.213L390.01,315.236ZM994.51,377.345C985.088,377.345 976.049,373.603 969.385,366.939C962.721,360.275 958.979,351.236 958.979,341.814C958.979,332.392 962.721,323.353 969.385,316.689C976.049,310.025 985.088,306.283 994.51,306.283C1003.93,306.283 1012.97,310.025 1019.63,316.689C1026.3,323.353 1030.04,332.392 1030.04,341.814C1030.05,351.24 1026.31,360.279 1019.64,366.947C1012.98,373.611 1003.94,377.353 994.51,377.345Z" style="fill:white;fill-rule:nonzero;"/>
            <path d="M359.39,125.25C365.085,120.984 371.249,116.555 377.695,112.242C392.136,102.582 409.484,98.234 426.777,99.945C444.07,101.652 460.23,109.316 472.5,121.617C474.984,124.148 477.516,126.844 480.047,129.703C482.734,132.754 484.043,136.781 483.664,140.828C483.285,144.879 481.258,148.59 478.051,151.094C474.848,153.598 470.754,154.668 466.735,154.055C433.989,148.961 400.821,147.098 367.712,148.5C362.044,148.762 356.868,145.293 354.958,139.949C353.044,134.61 354.845,128.644 359.391,125.25L359.39,125.25Z" style="fill:white;fill-rule:nonzero;"/>
            <path d="M550.71,195.87C550.71,206.667 541.96,215.417 531.163,215.417C520.366,215.417 511.616,206.667 511.616,195.87C511.616,185.073 520.366,176.323 531.163,176.323C541.96,176.323 550.71,185.073 550.71,195.87" style="fill:white;fill-rule:nonzero;"/>
            <path d="M372.56,674.13C372.56,684.111 364.47,692.2 354.49,692.2C344.51,692.2 336.42,684.11 336.42,674.13C336.42,664.15 344.51,656.06 354.49,656.06C364.471,656.06 372.56,664.15 372.56,674.13" style="fill:white;fill-rule:nonzero;"/>
            <path d="M326.95,974.48L273.044,972.628C265.052,972.347 257.376,975.761 252.232,981.886C230.064,1007.85 204.185,1030.4 175.427,1048.8C171.552,1051.28 166.462,1050.63 163.333,1047.27C160.2,1043.9 159.927,1038.77 162.677,1035.09C185.739,1004.11 217.075,957.253 234.232,911.039C236.283,905.516 241.56,901.859 247.451,901.875L270.349,901.875C274.571,901.871 278.571,903.762 281.247,907.031C289.661,917.343 309.911,940.898 332.809,958.148C335.977,960.547 337.219,964.726 335.879,968.468C334.535,972.21 330.922,974.644 326.949,974.484L326.95,974.48Z" style="fill:white;fill-rule:nonzero;"/>
            <path d="M147.38,1101.6C147.38,1117.72 134.318,1130.78 118.2,1130.78C102.083,1130.78 89.02,1117.72 89.02,1101.6C89.02,1085.48 102.082,1072.42 118.2,1072.42C134.317,1072.42 147.38,1085.48 147.38,1101.6" style="fill:white;fill-rule:nonzero;"/>
            <path d="M1040.2,939.84C1037.5,898.563 1017.43,860.363 984.973,834.72C952.516,809.075 910.707,798.388 869.923,805.31C864.79,806.193 859.564,804.365 856.099,800.474C852.634,796.584 851.419,791.185 852.884,786.185C853.974,782.697 855.646,779.416 857.83,776.482C876.205,751.123 962.03,749.412 1027.54,781.17C1029.19,782.005 1031.2,781.517 1032.29,780.021C1033.38,778.525 1033.22,776.463 1031.92,775.146C1019.71,762.466 1003.8,745.521 989.734,729.677C987.512,727.15 984.312,725.697 980.945,725.693C947.789,729.943 914.117,727.505 881.922,718.521C879.387,718.521 876.918,719.345 874.891,720.865C863.172,729.888 814.657,766.123 750.671,720.466C746.706,717.626 741.507,717.185 737.124,719.318C721.327,726.982 681.249,743.88 636.344,742.756C636.344,742.756 566.992,740.951 536.36,742.31C531.337,742.549 526.305,741.998 521.454,740.67C488.349,731.553 455.981,719.936 424.634,705.912C422.193,704.771 419.282,705.592 417.794,707.842C416.31,710.092 416.697,713.088 418.704,714.888C440.642,734.786 470.712,761.318 495.509,780.279C500.572,784.154 506.9,785.994 513.251,785.436C520.751,784.826 532.235,783.959 546.368,783.092C556.798,782.42 566.993,786.381 574.235,793.92C589.297,809.115 601.747,826.697 611.079,845.951C612.365,848.83 614.755,851.068 617.712,852.162C628.54,856.006 666.931,879.256 697.4,901.639C700.631,904.166 705.232,903.924 708.181,901.072C711.13,898.225 711.533,893.635 709.119,890.318C694.092,869.228 674.451,851.841 651.697,839.482C646.673,836.357 642.396,832.174 639.158,827.224C635.587,822.33 632.615,817.025 630.298,811.427C627.568,804.556 628.486,796.771 632.736,790.72C636.986,784.67 644.002,781.166 651.392,781.404C680.923,782.341 710.501,784.826 735.392,789.912C735.392,789.912 771.908,798.982 791.642,827.014C793.763,830.045 794.759,833.725 794.458,837.416C794.153,841.103 792.568,844.572 789.978,847.217C763.244,874.49 748.287,911.166 748.33,949.357C748.326,954.142 745.369,958.431 740.9,960.138C704.314,974.2 635.43,978.208 524.83,905.341C520.775,902.649 515.92,901.426 511.072,901.872C487.025,904.216 412.634,917.95 354.772,1000.89C354.772,1000.89 302.53,1078.24 245.672,1097.69C245.672,1097.69 224.578,1105.12 200.602,1112.48C196.879,1113.62 194.52,1117.28 195.024,1121.14C195.532,1125 198.75,1127.93 202.641,1128.07L270.774,1130.41C275.192,1130.58 279.532,1129.21 283.055,1126.54C308.485,1107.35 417.045,1027.29 468.605,1019.48C509.902,1013.23 585.605,1018.43 626.715,1022.04C631.094,1022.44 635.168,1024.46 638.129,1027.71C641.094,1030.96 642.731,1035.21 642.723,1039.61C642.715,1044 641.059,1048.24 638.082,1051.48C627.687,1063.15 614.16,1071.59 599.105,1075.78C595.039,1076.88 590.847,1077.42 586.636,1077.4C572.081,1077.4 533.831,1075.57 500.245,1058.65C496.194,1056.68 491.327,1057.63 488.315,1060.98C485.304,1064.33 484.874,1069.27 487.261,1073.09C497.949,1089.98 513.37,1109.09 534.136,1122.3C537.007,1124.23 540.323,1125.41 543.768,1125.7L607.963,1130.25C612.901,1130.61 617.807,1129.23 621.838,1126.36C641.854,1112.06 710.338,1068.42 799.708,1069.62C807.154,1069.82 814.419,1071.94 820.802,1075.78C851.513,1093.62 887.665,1099.67 922.512,1092.81C957.36,1085.95 988.516,1066.64 1010.17,1038.5C1031.83,1010.35 1042.5,975.285 1040.2,939.844L1040.2,939.84ZM898.99,1000.33C886.388,1000.34 874.299,995.336 865.385,986.43C856.471,977.52 851.463,965.434 851.459,952.832C851.455,940.23 856.463,928.141 865.373,919.23C874.283,910.32 886.373,905.312 898.975,905.316C911.577,905.32 923.663,910.328 932.573,919.242C941.479,928.156 946.483,940.246 946.475,952.847C946.444,965.421 941.428,977.468 932.526,986.347C923.624,995.226 911.565,1000.21 898.991,1000.21L898.99,1000.33Z" style="fill:white;fill-rule:nonzero;"/>
            <path d="M1111,850.57C1111,863.5 1100.52,873.984 1087.59,873.984C1074.66,873.984 1064.17,863.5 1064.17,850.57C1064.17,837.64 1074.66,827.156 1087.59,827.156C1100.52,827.156 1111,837.64 1111,850.57" style="fill:white;fill-rule:nonzero;"/>
        </g>
    </g>
</svg>
